X:293
T: Der Tod von Basel (3-95), S. 261
N: P1068
O: Lothringen
S: PINCK, Louis: Verklingende Weisen, Bd3, Metz 1933]
R: Eheverdruá, Tod der Frau, Freude]
M: 2/4
L: 1/8
K: G
 | GGGG | GBG
B | BGFG | A2z
A | AAAA | D2zD | dz2
D | cccA | B2B
B | AABA | GBd
B | cccA | B2B
G | AAAF | G4

